assets/fill/buildings-fill.svg

<svg id="Flat" xmlns="http://www.w3.org/2000/svg" viewBox="0 0 256 256">
  <path d="M240,207.98316h-8.00586v-104a16.01833,16.01833,0,0,0-16-16h-64v-48a16.01833,16.01833,0,0,0-16-16h-96a16.01833,16.01833,0,0,0-16,16v168H16a8,8,0,0,0,0,16H240a8,8,0,0,0,0-16Zm-120.00586-72a8.00009,8.00009,0,0,1-8,8h-32a8,8,0,0,1,0-16h32A8.00008,8.00008,0,0,1,119.99414,135.98316Zm-56-72h32a8,8,0,1,1,0,16h-32a8,8,0,0,1,0-16Zm0,104h32a8,8,0,1,1,0,16h-32a8,8,0,0,1,0-16Zm88-64h64v104h-64Zm48,72a8.00009,8.00009,0,0,1-8,8h-16a8,8,0,0,1,0-16h16A8.00008,8.00008,0,0,1,199.99414,175.98316Zm-32-40a8.00008,8.00008,0,0,1,8-8h16a8,8,0,1,1,0,16h-16A8.00009,8.00009,0,0,1,167.99414,135.98316Z"/>
</svg>

<svg xmlns="http://www.w3.org/2000/svg" viewBox="0 0 256 256"><path d="M240,208h-8V104a16,16,0,0,0-16-16H152V40a16,16,0,0,0-16-16H40A16,16,0,0,0,24,40V208H16a8,8,0,0,0,0,16H240a8,8,0,0,0,0-16ZM120,136a8,8,0,0,1-8,8H80a8,8,0,0,1,0-16h32A8,8,0,0,1,120,136ZM64,64H96a8,8,0,0,1,0,16H64a8,8,0,0,1,0-16Zm0,104H96a8,8,0,0,1,0,16H64a8,8,0,0,1,0-16Zm88-64h64V208H152Zm48,72a8,8,0,0,1-8,8H176a8,8,0,0,1,0-16h16A8,8,0,0,1,200,176Zm-32-40a8,8,0,0,1,8-8h16a8,8,0,0,1,0,16H176A8,8,0,0,1,168,136Z"/></svg>
